X:1
T:A Waukrife Minnie
M:4/4
L:1/4
K:G
 B3/4- A/4| G3/2 E/2 E G3/4- A/4| B3/2 A/2 AB/2-A/2| G A B d| d2 B z/2 c/2|\
 B d e3/2 g/2| B3/2 A/2 AB/2-A/2| G E E3/2 D/2| A3/2-B/4-c/4 B||
